X: 1
T: Uncle Dave's Jig
C: Gordon Patullo
R: jig
N: Suggested tune for Charlestown Chaser
B: RSCDS "A Second Book of Graded Scottish Country Dances" (Graded 2) p.5
Z: 2011 John Chambers <jc:trillian.mit.edu>
M: 6/8
L: 1/8
K: G
D |\
"G"G2G "D7"AFD | "G"Bcd "Am"ecA | "B/G"dBG "C/Am"edc | "C#/A"BAG "D7"FED |\
"Em"G2G "D"AFD | "G"Bcd "C"efg | "D/G"gdB "F#/D7"AGF | "G"G3 G2 :|
"D7"B/c/ |\
"G"dgf "C/Am"eag | "D7"fba "G"gdB | "C"cde "B/G"dBG | "A7"A3 "D7"DBc |\
"G"dgf "C/Am"eag | "D#/B7"fba "Em"gdB | "Am"cag "D7"fef | "G"g3 "G"G2 |]
"D7"B/c/ |\
"G"dgf "Am"eag | "B7"fba "Em"gd"G"B | "C"cde "B/B"dBG | "A7"A3 "D7"DEF |\
"G"G2G "A/D7"AFD | "B/G7"Bcd "C"efg | "D/G"gdB "F#/D7"AGF | "G"G3 G2 |]
